X: 22235
T: La Fête De Village
R: reel
M: 4/4
K: Dmajor
M:2/4
|:aa/g/ fe/f/|gf e2|fd d/c/d/f/|e/d/c/B/ Af/g/|
aa/g/ fe/f/|gf e2|fa g/f/e/c/|d2 d2:|
|:A/d/f/d/ A/c/e/c/|A/d/f/d/ A/c/e/c/|da gf|e/d/e/f/ ee|
A/d/f/d/ A/c/e/c/|A/d/f/d/ A/c/e/c/|da g/f/e/c/|d2 d2:|

